public/images/icon-sun.svg

<svg width="24" height="24" viewBox="0 0 17 17" fill="none" xmlns="http://www.w3.org/2000/svg">
<path d="M8.09478 11.486C9.93453 11.486 11.4259 9.99456 11.4259 8.15481C11.4259 6.31505 9.93453 4.82364 8.09478 4.82364C6.25502 4.82364 4.76361 6.31505 4.76361 8.15481C4.76361 9.99456 6.25502 11.486 8.09478 11.486Z" stroke="white" stroke-opacity="0.92" stroke-width="1.33247" stroke-linecap="round" stroke-linejoin="round"/>
<path d="M8.09479 0.826233V2.1587" stroke="white" stroke-opacity="0.92" stroke-width="1.33247" stroke-linecap="round" stroke-linejoin="round"/>
<path d="M8.09479 14.1509V15.4834" stroke="white" stroke-opacity="0.92" stroke-width="1.33247" stroke-linecap="round" stroke-linejoin="round"/>
<path d="M2.91147 2.97151L3.85752 3.91756" stroke="white" stroke-opacity="0.92" stroke-width="1.33247" stroke-linecap="round" stroke-linejoin="round"/>
<path d="M12.332 12.392L13.2781 13.3381" stroke="white" stroke-opacity="0.92" stroke-width="1.33247" stroke-linecap="round" stroke-linejoin="round"/>
<path d="M0.766205 8.1548H2.09867" stroke="white" stroke-opacity="0.92" stroke-width="1.33247" stroke-linecap="round" stroke-linejoin="round"/>
<path d="M14.0909 8.1548H15.4233" stroke="white" stroke-opacity="0.92" stroke-width="1.33247" stroke-linecap="round" stroke-linejoin="round"/>
<path d="M2.91147 13.3381L3.85752 12.392" stroke="white" stroke-opacity="0.92" stroke-width="1.33247" stroke-linecap="round" stroke-linejoin="round"/>
<path d="M12.332 3.91756L13.2781 2.97151" stroke="white" stroke-opacity="0.92" stroke-width="1.33247" stroke-linecap="round" stroke-linejoin="round"/>
</svg>

<svg xmlns="http://www.w3.org/2000/svg" width="24" height="24" fill="none" viewBox="0 0 17 17"><path stroke="#fff" stroke-linecap="round" stroke-linejoin="round" stroke-opacity=".92" stroke-width="1.3325" d="M8.0948 11.486c1.8397 0 3.3311-1.4914 3.3311-3.3312 0-1.8397-1.4914-3.3312-3.3311-3.3312-1.8398 0-3.3312 1.4915-3.3312 3.3312 0 1.8398 1.4914 3.3312 3.3312 3.3312ZM8.0948.8262v1.3325M8.0948 14.1509v1.3325M2.9115 2.9715l.946.946M12.332 12.392l.9461.9461M.7662 8.1548h1.3325M14.0909 8.1548h1.3324M2.9115 13.3381l.946-.9461M12.332 3.9176l.9461-.946"/></svg>
